X:1
T:James Gibb editions
T:Lo, land and sea their gifts outpour - Barnby
%%score [ ( 1 2 ) ( 3 4 ) ]
L:1/8
Q:1/4=84
M:4/4
K:A
V:1 treble nm="Midi_74"
V:2 treble 
V:3 bass nm="Midi_74"
V:4 bass 
V:1
"^Robert C. Singleton\n(1810-81)""^886. 886. 446""^Lo, sea and land their gifts outpour""^Joseph Barnby\n(1838-96)" c2 | %1
 B2 c2 d2 c2 | B2 A2 G2 || E2 | A2 B2 c2 e2 | ^d2 cB e2 || c2 | B2 E2 F2 F2 | E6 || E2 | %10
 A2 B2 c2 A2 | F2 B2 G2 ||[M:4/4] E2 | e2 d2 c2 B2 | A2 d2 B2 || B2 | c2 BA G2 G2 | F6 || A2 | %19
 d4 d4 | d6 || d2 | c2 B2 A2 || B2 | c2 e2 c2 B2 | A6 || A4 A4 |] %27
V:2
 E2 | E2 E2 D2 E2 | F2 D2 E2 || B,2 | E2 E2 E2 E2 | F2 ^D2 E2 || E2 | ^D2 E2 E2 D2 | E6 || E2 | %10
 E2 E2 E2 E2 | F2 F2 E2 ||[M:4/4] E2 | E2 G2 A2 ^E2 | C2 F2 E2 || E2 | E2 DC B,2 B,2 | A,6 || C2 | %19
 D4 =G4 | F6 || D2 | E2 E2 C2 || F2 | E2 A2 A2 G2 | A6 || F4 E4 |] %27
V:3
 A,2 | G,2 A,2 A,2 A,2 | D2 A,2 B,2 || G,2 | A,2 G,2 A,2 B,2 | A,2 A,2 B,2 || A,2 | %7
 A,2 G,2 CB, A,2 | G,6 || G,2 | A,2 G,2 A,2 A,2 | A,2 D2 B,2 || %12
[M:4/4]"^1. Lo, sea and land their gifts outpour,\nA tribute from their richest store,\nTo lie at Levi's feet.\nBut Thou, in passing, gracious Lord,\nDidst see his danger, speak Thy Word;\nThat Word for him how meet!\n\"Come, follow me!\"\nTo follow Thee\nHe quits his wealthy seat.\n\n2. But we are still in fetters bound;\nEarth's wealth and pleasures twine around\nOur hearts all dead and cold:\nUnyielding to the cries of grace,\nWith wills too weak to seek Thy face,\nFast tied in Satan's hold.\n\"Come, follow me!\"\nAh! how are we\nTo burst the chains of gold?\n" G,2 | %13
 A,2 B,2 A,2 G,2 | F,2 A,2 G,2 || B,2 | A,2 F,2 F,2 ^E,2 | F,6 || =G,2 | %19
"^3. Yet, roused by Thine Almighty voice,\nGood Lord, we rise, and we rejoice;\nWe fling the dross away.\nNo diamond sparkles in the light,\nNought ever shines so fair and bright\nAs Thy celestial ray.\n\"Come, follow me!\"\nWe fly to Thee\nO living Star of day.\n\n4. Thou hadst not where to lay Thine head,\nWhen Matthew, by Thy mercy led,\nSought Thee to be his guest;\nBut we, O Lord, of Thee have need;\nOn Thy rich bounty we must feed,\nAnd lean upon Thy breast.\n\"Then follow me!\"\nWe cling to Thee,\nOur riches, and our rest. Amen." F,4 B,4 | %20
 A,6 || A,2 | A,2 G,2 A,2 || A,2 | A,B, CD E2 D2 | C6 || D4 C4 |] %27
V:4
 A,2 | E,2 A,2 F,2 A,2 | D,2 F,2 E,2 || D,2 | C,2 E,2 A,2 G,2 | F,2 F,2 G,2 || A,,2 | %7
 B,,2 C,2 A,,2 B,,2 | E,6 || D,2 | C,2 E,2 A,,2 C,2 | D,2 B,,2 E,2 ||[M:4/4] D,2 | %13
 C,2 E,2 A,2 C,2 | F,2 D,2 E,2 || G,,2 | A,,2 B,,2 C,2 C,2 | F,6 || E,2 | D,4 D,4 | D,6 || F,2 | %22
 A,2 E,2 F,2 || D,2 | E,2 E,2 E,2 E,2 | A,,6 || D,4 A,,4 |] %27

